X:133
T: So leb denn wohl du stilles Haus (2-15), S. 34
N: K1107
O: Luxemburg
S: KINTZELE, Guillaume: An der Ucht, Bd. 2, Luxemburg 1927]
N: in der Quelle mit einer 2. Stimme versehen
R: Abschied, Bitte um Treue]
M: 3/4
L: 1/8
K: F
c=Bc | d3cBG | F2z
c=Bc | e3dcB | A2z
c=Bc | e3cde | f3
AGA | d3cBG | F2z

